packages/core/src/svgs/hoge.svg

<svg width="24" height="24" viewBox="0 0 24 24" fill="none" xmlns="http://www.w3.org/2000/svg">
<g clip-path="url(#clip0_31_11473)">
<path d="M0 0H24V24H0V0Z" fill="url(#paint0_linear_31_11473)"/>
<path d="M14.9057 10.9714L11.9914 6.49707C12.3857 6.53136 12.7628 6.61707 12.9 6.65564L15.48 10.6671C15.2143 10.8514 14.9871 10.9456 14.9057 10.9671V10.9714ZM6.56999 12.7542C6.04713 13.5814 6.26999 15.1199 6.54427 16.0542C6.72856 16.5428 7.18285 16.8085 7.61142 17.0656C8.60142 17.6656 10.6543 18.5828 13.0586 17.4942C12.1928 17.2242 11.0314 14.6828 10.1786 13.5385C9.91761 13.1665 9.58124 12.8537 9.19136 12.6204C8.80148 12.387 8.36683 12.2384 7.9157 12.1842C7.38856 12.1414 6.86999 12.2828 6.56999 12.7542Z" fill="white"/>
<path d="M6.26576 14.4945C6.63004 15.1288 7.48719 16.0802 8.76433 16.0802C9.21058 16.0801 9.65019 15.972 10.0457 15.7653C10.4412 15.5586 10.7809 15.2594 11.0358 14.8931C10.7358 14.3788 10.44 13.8945 10.1786 13.5388C9.91766 13.1668 9.5813 12.854 9.19142 12.6207C8.80154 12.3873 8.36688 12.2387 7.91576 12.1845C7.38861 12.1416 6.87004 12.2831 6.57004 12.7545C6.29147 13.1959 6.22719 13.8474 6.27004 14.4945H6.26576Z" fill="#D2D2D2"/>
<path d="M4.71434 12.6559C4.7272 10.0845 6.12005 9.4588 6.81863 9.47166C7.13148 10.5088 7.65434 10.7274 7.95863 10.7274C8.61434 10.7274 9.2272 9.79738 9.37291 9.35595C11.1129 9.28309 11.6615 9.9688 12.3386 10.4402C12.9343 10.8559 13.6243 11.4259 14.4301 11.4259C15.0729 11.4259 15.5229 11.1688 15.6686 11.0402L16.2901 11.3831C16.1872 12.0088 15.9601 13.4402 15.8701 14.1945C15.7758 14.9488 15.9986 15.4631 16.1143 15.6259C15.8443 16.1831 15.1629 17.3145 14.0272 17.3402C12.7415 17.3659 11.7043 15.2531 11.5758 15.0259C11.4472 14.7945 10.6543 13.3117 9.80148 12.5402C8.95291 11.7688 8.0272 11.7559 8.03148 11.7688C7.97744 11.4474 7.96734 11.1201 8.00148 10.7959C7.73577 11.0702 7.7272 11.5588 7.7572 11.7688C5.2072 11.8845 5.73434 14.9959 6.31291 16.5388C5.85434 16.3802 4.70148 15.9088 4.71434 12.6559Z" fill="white"/>
<path d="M15.5229 11.143L16.1443 11.4987L16.0886 11.863C15.7286 14.293 15.5615 15.3944 14.2886 15.3944C13.3758 15.3944 12.45 14.3016 11.5629 13.2473C11.0572 12.6473 10.5643 12.0644 10.0886 11.6959C9.49051 11.2252 8.74969 10.9727 7.98862 10.9801C7.97576 11.233 7.97576 11.5801 8.03148 11.7687C8.02719 11.7559 8.95291 11.7687 9.80148 12.5401C10.5901 13.2559 11.3272 14.5801 11.5372 14.953L11.5758 15.0259L11.6143 15.0987C11.8501 15.5359 12.8315 17.3659 14.0272 17.3359C15.1629 17.3144 15.8443 16.1873 16.1143 15.6216C15.8701 15.1885 15.7838 14.6841 15.87 14.1944C15.96 13.4444 16.1872 12.0087 16.29 11.383L15.6686 11.0401C15.6343 11.0701 15.5829 11.1044 15.5229 11.143ZM7.86862 10.9887C7.7614 11.2338 7.72288 11.5034 7.75719 11.7687C5.20719 11.8844 5.73434 14.9959 6.31291 16.5387C6.06228 16.4563 5.83251 16.3205 5.6394 16.1407C5.4463 15.9609 5.29446 15.7414 5.19434 15.4973C5.31434 15.613 5.50291 15.733 5.62291 15.6387C5.67005 15.6001 5.64434 15.343 5.61434 15.0044C5.59719 14.833 5.58005 14.6444 5.57148 14.4516C5.52862 13.7616 5.52005 13.0287 5.80291 12.3816C5.97361 11.9731 6.2602 11.6235 6.62729 11.376C6.99438 11.1284 7.42591 10.9938 7.86862 10.9887Z" fill="#D2D2D2"/>
<path d="M16.7185 11.0141V7.78271C18.8871 9.93414 19.2857 11.6141 19.2857 12.1713C19.2857 12.5013 19.2299 12.8399 19.1485 13.157C18.9385 13.9756 18.5399 15.0856 17.7128 15.4884C16.9971 15.8399 16.1999 15.5313 16.2899 14.3441C16.3628 13.3799 16.7185 11.9956 16.7185 11.0141Z" fill="white"/>
<path d="M18.9471 10.8599C19.2085 11.4727 19.2857 11.927 19.2857 12.167C19.2857 12.497 19.2299 12.8356 19.1485 13.1527C18.9385 13.9713 18.5399 15.0813 17.7128 15.4841C16.9971 15.8356 16.1999 15.527 16.2899 14.3399V14.2799C17.1042 14.2584 18.3428 13.6199 18.9471 10.8599Z" fill="#D2D2D2"/>
<path d="M10.9843 5.653C10.2 5.78157 9.63001 6.02586 9.36858 6.14157C10.5 6.18443 12.6986 6.10729 14.2114 6.81443C14.6598 7.02377 15.0525 7.3358 15.3578 7.72522C15.6631 8.11464 15.8723 8.5705 15.9686 9.05586L16.26 9.25729L16.3329 7.543C15.1329 5.95729 12.8914 5.33586 10.9843 5.653ZM7.02001 9.06872C6.96858 9.30014 7.16573 9.74157 7.2643 9.90015C7.28144 9.92586 7.31144 9.93014 7.33715 9.913C7.34967 9.90508 7.35907 9.89307 7.36376 9.87901C7.36844 9.86496 7.36813 9.84971 7.36287 9.83586C7.30287 9.673 7.19144 9.313 7.2343 9.19729C7.2943 9.043 7.70572 8.85872 9.0343 8.89729C9.0643 8.89729 9.09001 8.88443 9.10287 8.85443C9.11572 8.833 9.10287 8.81157 9.07287 8.803C8.77287 8.76872 7.2043 8.64443 7.02001 9.06872Z" fill="white"/>
<path d="M8.39143 6.48431C7.32 6.71146 6.98143 6.93431 6.94714 7.01146L7.8 8.57146L8.21572 8.55431C8.52 8.54146 9.46714 8.5286 9.48429 8.92717H9.80143L8.38714 6.48431H8.39143ZM11.1557 9.24003L9.61286 6.38574H10.38L12.4371 9.9986C12.0686 9.65574 11.43 9.35146 11.1557 9.24003ZM12.8443 10.2986L10.5643 6.38574H10.9843L13.5043 10.8C13.2986 10.6157 12.9771 10.3886 12.8443 10.2986Z" fill="white"/>
</g>
<defs>
<linearGradient id="paint0_linear_31_11473" x1="4.46571" y1="4.16143" x2="29.2071" y2="32.58" gradientUnits="userSpaceOnUse">
<stop stop-color="#1A1E21"/>
<stop offset="1" stop-color="#06060A"/>
</linearGradient>
<clipPath id="clip0_31_11473">
<rect width="24" height="24" fill="white"/>
</clipPath>
</defs>
</svg>

<svg xmlns="http://www.w3.org/2000/svg" width="24" height="24" fill="none" viewBox="0 0 24 24"><g clip-path="url(#a)"><path fill="url(#b)" d="M0 0h24v24H0z"/><path fill="#fff" d="M14.906 10.971 11.99 6.497c.395.034.772.12.909.159l2.58 4.011a2.2 2.2 0 0 1-.574.3zM6.57 12.754c-.523.827-.3 2.366-.026 3.3.185.489.639.755 1.067 1.012.99.6 3.043 1.517 5.448.428-.866-.27-2.028-2.811-2.88-3.955a3.24 3.24 0 0 0-2.263-1.355c-.527-.043-1.046.099-1.346.57"/><path fill="#D2D2D2" d="M6.266 14.495c.364.634 1.221 1.585 2.498 1.585a2.77 2.77 0 0 0 2.272-1.187c-.3-.514-.596-.998-.857-1.354a3.23 3.23 0 0 0-2.263-1.354c-.527-.043-1.046.098-1.346.57-.279.44-.343 1.092-.3 1.74z"/><path fill="#fff" d="M4.714 12.656c.013-2.572 1.406-3.197 2.105-3.184.312 1.037.835 1.255 1.14 1.255.655 0 1.268-.93 1.414-1.371 1.74-.073 2.289.613 2.966 1.084.595.416 1.285.986 2.091.986.643 0 1.093-.257 1.239-.386l.621.343c-.103.626-.33 2.057-.42 2.812-.094.754.129 1.268.244 1.43-.27.558-.951 1.69-2.087 1.715-1.285.026-2.323-2.087-2.451-2.314-.129-.232-.922-1.714-1.775-2.486-.848-.771-1.774-.784-1.77-.771a3.6 3.6 0 0 1-.03-.973c-.265.274-.274.763-.244.973-2.55.115-2.023 3.227-1.444 4.77-.459-.159-1.612-.63-1.599-3.883"/><path fill="#D2D2D2" d="m15.523 11.143.621.356-.055.364c-.36 2.43-.527 3.531-1.8 3.531-.913 0-1.839-1.092-2.726-2.147-.506-.6-.999-1.183-1.474-1.551a3.34 3.34 0 0 0-2.1-.716c-.013.253-.013.6.042.789-.004-.013.922 0 1.77.771.79.716 1.526 2.04 1.736 2.413l.039.073.038.073c.236.437 1.217 2.267 2.413 2.237 1.136-.022 1.817-1.149 2.087-1.714a2.15 2.15 0 0 1-.244-1.428c.09-.75.317-2.185.42-2.811l-.621-.343q-.054.045-.146.103m-7.654-.154a1.5 1.5 0 0 0-.112.78c-2.55.115-2.023 3.227-1.444 4.77a1.83 1.83 0 0 1-1.119-1.042c.12.116.309.236.429.142.047-.039.021-.296-.009-.635-.017-.171-.034-.36-.043-.552-.042-.69-.05-1.423.232-2.07a2.27 2.27 0 0 1 2.066-1.393"/><path fill="#fff" d="M16.719 11.014V7.783c2.168 2.151 2.567 3.831 2.567 4.388 0 .33-.056.669-.138.986-.21.819-.608 1.929-1.435 2.331-.716.352-1.513.043-1.423-1.144.073-.964.428-2.348.428-3.33"/><path fill="#D2D2D2" d="M18.947 10.86c.262.613.339 1.067.339 1.307 0 .33-.056.669-.138.986-.21.818-.608 1.928-1.435 2.331-.716.352-1.513.043-1.423-1.144v-.06c.814-.022 2.053-.66 2.657-3.42"/><path fill="#fff" d="M10.984 5.653a6.5 6.5 0 0 0-1.615.489c1.131.042 3.33-.035 4.842.672a3.15 3.15 0 0 1 1.758 2.242l.291.201.073-1.714c-1.2-1.586-3.442-2.207-5.349-1.89M7.02 9.069c-.051.231.146.673.244.831.017.026.047.03.073.013a.064.064 0 0 0 .026-.077c-.06-.163-.172-.523-.129-.639.06-.154.472-.338 1.8-.3.03 0 .056-.013.069-.043.013-.021 0-.042-.03-.051-.3-.034-1.869-.159-2.053.266"/><path fill="#fff" d="M8.391 6.484c-1.071.227-1.41.45-1.444.527l.853 1.56.416-.017c.304-.013 1.251-.025 1.268.373h.317L8.387 6.484zm2.765 2.756L9.613 6.386h.767l2.057 3.613c-.368-.343-1.007-.648-1.281-.759m1.688 1.059-2.28-3.913h.42l2.52 4.414a7 7 0 0 0-.66-.501"/></g><defs><linearGradient id="b" x1="4.466" x2="29.207" y1="4.161" y2="32.58" gradientUnits="userSpaceOnUse"><stop stop-color="#1A1E21"/><stop offset="1" stop-color="#06060A"/></linearGradient><clipPath id="a"><path fill="#fff" d="M0 0h24v24H0z"/></clipPath></defs></svg>
